;FLAVOR:UltiGCode
;TIME:1065
;MATERIAL:2204
;MATERIAL2:0
;NOZZLE_DIAMETER:0.4
;Generated with Cura_SteamEngine 2.6.2

;LAYER_COUNT:140
;LAYER:0
M107
G0 F4320 X105.773 Y98.827 Z0.27
G0 X105.395 Y99.269
;TYPE:SKIRT
G1 F1800 X105.773 Y98.827 E0.05496
G1 X106.207 Y98.442 E0.10979
G1 X106.69 Y98.119 E0.16469
G1 X107.213 Y97.866 E0.2196
G1 X107.612 Y97.728 E0.25949
G1 X111.001 Y96.745 E0.59295
G1 X111.569 Y96.622 E0.64787
G1 X112.148 Y96.578 E0.70275
G1 X112.728 Y96.614 E0.75766
G1 X113.213 Y96.707 E0.80433
G1 X117.013 Y97.667 E1.17471
G1 X117.565 Y97.847 E1.22958
G1 X118.087 Y98.102 E1.28448
G1 X118.554 Y98.414 E1.33756
G1 X120.663 Y100.036 E1.58898
G1 X121.022 Y100.345 E1.63374
G1 X122.469 Y101.742 E1.82381
G1 X122.858 Y102.174 E1.87875
G1 X123.184 Y102.654 E1.93358
G1 X123.442 Y103.175 E1.98852
G1 X123.625 Y103.727 E2.04348
G1 X123.731 Y104.298 E2.09836
G1 X123.759 Y104.745 E2.14068
G1 X123.789 Y108.129 E2.46048
G1 X123.926 Y111.835 E2.81094
G1 X123.901 Y112.476 E2.87156
G1 X123.711 Y114.124 E3.02833
G1 X123.538 Y114.927 E3.10595
G1 X123.087 Y116.337 E3.24585
G1 X122.791 Y117.038 E3.31776
G1 X122.055 Y118.418 E3.46555
G1 X121.605 Y119.096 E3.54245
G1 X120.616 Y120.312 E3.69057
G1 X120.202 Y120.752 E3.74767
G1 X119.676 Y121.237 E3.81528
G1 X119.241 Y121.588 E3.8681
G1 X118.004 Y122.457 E4.01096
G1 X117.388 Y122.816 E4.07833
G1 X116.205 Y123.378 E4.2021
G1 X115.545 Y123.627 E4.26876
G1 X114.212 Y124.005 E4.3997
G1 X113.648 Y124.124 E4.45417
G1 X112.817 Y124.241 E4.53347
G1 X112.321 Y124.281 E4.5805
G1 X111.234 Y124.305 E4.68324
G1 X110.599 Y124.271 E4.74334
G1 X109.207 Y124.091 E4.87598
G1 X108.636 Y123.977 E4.931
G1 X107.805 Y123.75 E5.01241
G1 X107.237 Y123.55 E5.06931
G1 X105.939 Y122.987 E5.20302
G1 X105.259 Y122.615 E5.27626
G1 X103.88 Y121.686 E5.43339
G1 X103.256 Y121.173 E5.50973
G1 X102.253 Y120.172 E5.64364
G1 X101.771 Y119.596 E5.71461
G1 X100.898 Y118.343 E5.85893
G1 X100.578 Y117.801 E5.91841
G1 X100.134 Y116.903 E6.01308
G1 X99.919 Y116.386 E6.06599
G1 X99.57 Y115.356 E6.16876
G1 X99.412 Y114.739 E6.22895
G1 X99.166 Y113.354 E6.36188
G1 X99.102 Y112.708 E6.42322
G1 X99.078 Y111.617 E6.52635
G1 X99.112 Y110.979 E6.58673
G1 X99.293 Y109.587 E6.71938
G1 X99.426 Y108.951 E6.78078
G1 X99.734 Y107.893 E6.88491
G1 X99.941 Y107.335 E6.94115
G1 X100.428 Y106.257 E7.05294
G1 X100.66 Y105.814 E7.10019
G1 X101.072 Y105.131 E7.17557
G1 X101.296 Y104.796 E7.21365
G1 X105.395 Y99.269 E7.86392
G0 F4320 X105.677 Y99.478
G1 F1800 X106.039 Y99.056 E7.91646
G1 X106.459 Y98.69 E7.9691
G1 X106.926 Y98.388 E8.02166
G1 X107.432 Y98.156 E8.07426
G1 X107.71 Y98.064 E8.10194
G1 X111.099 Y97.081 E8.4354
G1 X111.643 Y96.965 E8.48796
G1 X112.198 Y96.928 E8.54052
G1 X112.753 Y96.971 E8.59313
G1 X113.127 Y97.046 E8.62917
G1 X116.927 Y98.006 E8.99956
G1 X117.455 Y98.181 E9.05212
G1 X117.953 Y98.429 E9.1047
G1 X118.34 Y98.691 E9.14886
G1 X120.449 Y100.313 E9.40029
G1 X120.778 Y100.597 E9.44136
G1 X122.225 Y101.994 E9.63143
G1 X122.597 Y102.408 E9.68402
G1 X122.905 Y102.872 E9.73665
G1 X123.144 Y103.374 E9.78919
G1 X123.309 Y103.906 E9.84183
G1 X123.395 Y104.455 E9.89434
G1 X123.409 Y104.748 E9.92206
G1 X123.439 Y108.145 E10.24309
G1 X123.576 Y111.848 E10.59327
G1 X123.554 Y112.436 E10.64887
G1 X123.364 Y114.084 E10.80564
G1 X123.205 Y114.821 E10.87689
G1 X122.754 Y116.231 E11.01678
G1 X122.482 Y116.874 E11.08276
G1 X121.746 Y118.254 E11.23056
G1 X121.333 Y118.875 E11.30103
G1 X120.344 Y120.091 E11.44916
G1 X119.965 Y120.495 E11.5015
G1 X119.439 Y120.98 E11.56912
G1 X119.039 Y121.302 E11.61764
G1 X117.802 Y122.171 E11.7605
G1 X117.238 Y122.5 E11.8222
G1 X116.055 Y123.062 E11.94597
G1 X115.449 Y123.29 E12.00716
G1 X114.116 Y123.668 E12.13809
G1 X113.599 Y123.777 E12.18802
G1 X112.768 Y123.894 E12.26733
G1 X112.314 Y123.931 E12.31037
G1 X111.227 Y123.955 E12.41312
G1 X110.644 Y123.924 E12.46829
G1 X109.252 Y123.744 E12.60093
G1 X108.728 Y123.639 E12.65143
G1 X107.897 Y123.412 E12.73284
G1 X107.376 Y123.229 E12.78502
G1 X106.078 Y122.666 E12.91872
G1 X105.455 Y122.325 E12.98584
G1 X104.076 Y121.396 E13.14297
G1 X103.504 Y120.925 E13.21299
G1 X102.501 Y119.924 E13.3469
G1 X102.059 Y119.396 E13.41197
G1 X101.186 Y118.143 E13.55628
G1 X100.891 Y117.645 E13.61098
G1 X100.447 Y116.747 E13.70565
G1 X100.251 Y116.274 E13.75403
G1 X99.902 Y115.244 E13.8568
G1 X99.757 Y114.678 E13.91202
G1 X99.511 Y113.293 E14.04495
G1 X99.452 Y112.7 E14.10126
G1 X99.428 Y111.609 E14.20439
G1 X99.459 Y111.024 E14.25975
G1 X99.64 Y109.632 E14.3924
G1 X99.762 Y109.049 E14.44869
G1 X100.07 Y107.991 E14.55282
G1 X100.26 Y107.479 E14.60443
G1 X100.747 Y106.401 E14.71621
G1 X100.96 Y105.994 E14.75962
G1 X101.372 Y105.311 E14.835
G1 X101.578 Y105.005 E14.86986
G1 X105.677 Y99.478 E15.52012
G0 F4320 X105.958 Y99.686
G1 F1800 X106.305 Y99.285 E15.57023
G1 X106.709 Y98.94 E15.62044
G1 X107.159 Y98.66 E15.67052
G1 X107.807 Y98.401 E15.73647
G1 X111.196 Y97.418 E16.06993
G1 X111.715 Y97.308 E16.12007
G1 X112.245 Y97.279 E16.17023
G1 X112.773 Y97.329 E16.22034
G1 X113.041 Y97.385 E16.24622
G1 X116.841 Y98.345 E16.6166
G1 X117.345 Y98.514 E16.66683
G1 X117.817 Y98.756 E16.71696
G1 X118.127 Y98.969 E16.7525
G1 X120.236 Y100.591 E17.00393
G1 X120.535 Y100.849 E17.04125
G1 X121.982 Y102.246 E17.23132
G1 X122.335 Y102.642 E17.28145
G1 X122.625 Y103.087 E17.33164
G1 X122.844 Y103.57 E17.38176
G1 X122.989 Y104.081 E17.43196
G1 X123.059 Y104.751 E17.49562
G1 X123.088 Y108.126 E17.81457
G1 X123.227 Y111.861 E18.16777
G1 X123.206 Y112.396 E18.21836
G1 X123.016 Y114.044 E18.37513
G1 X122.871 Y114.714 E18.43991
G1 X122.42 Y116.124 E18.57981
G1 X122.173 Y116.709 E18.63982
G1 X121.437 Y118.089 E18.78761
G1 X121.062 Y118.654 E18.8517
G1 X120.073 Y119.87 E18.99982
G1 X119.728 Y120.238 E19.04749
G1 X119.202 Y120.723 E19.1151
G1 X118.838 Y121.015 E19.1592
G1 X117.601 Y121.884 E19.30205
G1 X117.088 Y122.184 E19.35821
G1 X115.905 Y122.746 E19.48198
G1 X115.354 Y122.953 E19.5376
G1 X114.021 Y123.331 E19.66854
G1 X113.55 Y123.431 E19.71404
G1 X112.719 Y123.548 E19.79334
G1 X112.306 Y123.581 E19.8325
G1 X111.219 Y123.605 E19.93524
G1 X110.689 Y123.577 E19.9854
G1 X109.297 Y123.397 E20.11804
G1 X108.82 Y123.301 E20.16402
G1 X107.989 Y123.074 E20.24543
G1 X107.515 Y122.908 E20.29289
G1 X106.217 Y122.345 E20.42659
G1 X105.651 Y122.034 E20.48762
G1 X104.272 Y121.105 E20.64475
G1 X103.751 Y120.677 E20.70846
G1 X102.748 Y119.676 E20.84237
G1 X102.346 Y119.196 E20.90154
G1 X101.473 Y117.943 E21.04585
G1 X101.205 Y117.49 E21.09559
G1 X100.761 Y116.592 E21.19026
G1 X100.582 Y116.161 E21.23436
G1 X100.233 Y115.131 E21.33713
G1 X100.101 Y114.616 E21.38737
G1 X99.855 Y113.231 E21.52031
G1 X99.802 Y112.693 E21.57139
G1 X99.778 Y111.602 E21.67452
G1 X99.806 Y111.069 E21.72496
G1 X99.987 Y109.677 E21.85761
G1 X100.098 Y109.147 E21.90878
G1 X100.406 Y108.089 E22.01291
G1 X100.579 Y107.623 E22.05988
G1 X101.066 Y106.545 E22.17167
G1 X101.26 Y106.175 E22.21115
G1 X101.672 Y105.492 E22.28652
G1 X101.859 Y105.213 E22.31826
G1 X105.958 Y99.686 E22.96853
G0 F4320 X106.239 Y99.895
G1 F1800 X106.57 Y99.515 E23.01615
G1 X106.957 Y99.193 E23.06373
G1 X107.39 Y98.936 E23.11131
G1 X107.905 Y98.737 E23.16348
G1 X111.294 Y97.754 E23.49694
G1 X111.787 Y97.652 E23.54452
G1 X112.29 Y97.63 E23.5921
G1 X112.956 Y97.725 E23.65567
G1 X116.756 Y98.685 E24.02605
G1 X117.233 Y98.846 E24.07363
G1 X117.678 Y99.081 E24.12119
G1 X117.914 Y99.246 E24.1484
G1 X120.023 Y100.868 E24.39982
G1 X120.292 Y101.101 E24.43346
G1 X121.739 Y102.498 E24.62353
G1 X122.073 Y102.875 E24.67112
G1 X122.342 Y103.301 E24.71873
G1 X122.541 Y103.763 E24.76627
G1 X122.664 Y104.252 E24.81392
G1 X122.709 Y104.754 E24.86155
G1 X122.739 Y108.142 E25.18173
G1 X122.877 Y111.874 E25.53464
G1 X122.858 Y112.356 E25.58023
G1 X122.668 Y114.004 E25.73699
G1 X122.538 Y114.607 E25.79529
G1 X122.087 Y116.017 E25.93518
G1 X121.864 Y116.544 E25.98926
G1 X121.128 Y117.924 E26.13706
G1 X120.79 Y118.433 E26.1948
G1 X119.801 Y119.649 E26.34292
G1 X119.49 Y119.98 E26.38584
G1 X118.964 Y120.465 E26.45345
G1 X118.637 Y120.729 E26.49317
G1 X117.4 Y121.598 E26.63602
G1 X116.937 Y121.868 E26.68667
G1 X115.754 Y122.43 E26.81044
G1 X115.258 Y122.617 E26.86053
G1 X113.925 Y122.995 E26.99147
G1 X113.502 Y123.084 E27.03232
G1 X112.671 Y123.201 E27.11162
G1 X112.298 Y123.231 E27.14698
G1 X111.211 Y123.255 E27.24973
G1 X110.734 Y123.23 E27.29487
G1 X109.342 Y123.05 E27.42751
G1 X108.912 Y122.964 E27.46895
G1 X108.081 Y122.737 E27.55035
G1 X107.655 Y122.587 E27.59303
G1 X106.357 Y122.024 E27.72674
G1 X105.846 Y121.744 E27.7818
G1 X104.467 Y120.815 E27.93893
G1 X103.998 Y120.429 E27.99633
G1 X102.995 Y119.428 E28.13024
G1 X102.633 Y118.996 E28.1835
G1 X101.76 Y117.743 E28.32782
G1 X101.519 Y117.335 E28.3726
G1 X101.075 Y116.437 E28.46726
G1 X100.914 Y116.049 E28.50696
G1 X100.565 Y115.019 E28.60973
G1 X100.446 Y114.555 E28.655
G1 X100.2 Y113.17 E28.78793
G1 X100.152 Y112.685 E28.83399
G1 X100.128 Y111.594 E28.93711
G1 X100.154 Y111.115 E28.98244
G1 X100.335 Y109.723 E29.11509
G1 X100.435 Y109.245 E29.16124
G1 X100.743 Y108.187 E29.26537
G1 X100.898 Y107.767 E29.30768
G1 X101.385 Y106.689 E29.41946
G1 X101.559 Y106.356 E29.45497
G1 X101.971 Y105.673 E29.53035
G1 X102.14 Y105.422 E29.55894
G1 X106.239 Y99.895 E30.20921
G0 F4320 X108.958 Y103.182
;TYPE:SUPPORT
G1 F1800 X108.958 Y101.907 E30.32969
G1 X112.179 Y100.973 E30.64662
G1 X115.869 Y101.905 E31.00627
G1 X116.028 Y102.177 E31.03605
G1 X117.989 Y103.519 E31.2606
G1 X119.304 Y104.788 E31.43329
G1 X118.32 Y105.926 E31.57546
G1 X117.586 Y105.114 E31.6789
G1 X117.301 Y104.925 E31.71122
G1 X117.084 Y104.757 E31.73715
G1 X116.925 Y104.633 E31.75621
G1 X116.682 Y104.443 E31.78535
G1 X116.385 Y104.257 E31.81847
G1 X115.957 Y103.989 E31.86619
G1 X115.166 Y103.594 E31.94974
G1 X114.95 Y103.511 E31.97161
G1 X114.595 Y103.373 E32.0076
G1 X114.322 Y103.266 E32.03531
G1 X114.109 Y103.211 E32.0561
G1 X114.109 Y103.21 E32.0562
G1 X113.407 Y103.017 E32.125
G1 X112.559 Y102.88 E32.20617
G1 X112.311 Y102.864 E32.22966
G1 X112.112 Y102.85 E32.24851
G1 X111.732 Y102.824 E32.2845
G1 X111.72 Y102.824 E32.28564
G1 X111.65 Y102.82 E32.29226
G1 X111.578 Y102.823 E32.29907
G1 X111.461 Y102.821 E32.31013
G1 X110.876 Y102.846 E32.36546
G1 X110.708 Y102.852 E32.38135
G1 X110.514 Y102.879 E32.39986
G1 X110.196 Y102.923 E32.4302
G1 X109.877 Y102.964 E32.46059
G1 X109.842 Y102.964 E32.4639
G1 X108.957 Y103.184 E32.55007
G1 X108.958 Y103.182 E32.55029
G0 F4320 X109.098 Y102.652
G1 F1800 X116.475 Y102.652 E33.24741
G0 F4320 X116.65 Y102.773
G1 F1800 X116.65 Y104.258 E33.38775
G0 F4320 X117.644 Y104.985
G1 F1800 X118.946 Y104.985 E33.51078
G0 F4320 X118.983 Y104.944
G1 F1800 X118.983 Y104.674 E33.5363
G0 F4320 X114.317 Y103.12
G1 F1800 X114.317 Y101.658 E33.67446
G0 F4320 X111.984 Y101.175
G1 F1800 X111.984 Y102.701 E33.81867
G0 F4320 X109.651 Y102.868
G1 F1800 X109.651 Y101.852 E33.91468
G10
G0 F4320 X109.891 Y103.148
G0 X110.059 Y104.351
G0 X110.118 Y104.677
;TYPE:WALL-INNER
G11
G1 F1800 X110.845 Y104.575 E33.98405
G1 X111.618 Y104.546 E34.05715
G1 X112.343 Y104.595 E34.12582
G1 X113.106 Y104.725 E34.19896
G1 X113.821 Y104.923 E34.26907
G1 X114.486 Y105.18 E34.33645
G1 X115.115 Y105.501 E34.40318
G1 X115.713 Y105.878 E34.46998
G1 X116.278 Y106.317 E34.5376
G1 X116.698 Y106.704 E34.59157
G1 X117.187 Y107.246 E34.66055
G1 X117.598 Y107.801 E34.72581
G1 X117.958 Y108.399 E34.79178
G1 X118.283 Y109.083 E34.86334
G1 X118.528 Y109.771 E34.93235
G1 X118.703 Y110.487 E35.00201
G1 X118.809 Y111.232 E35.07312
G1 X118.838 Y111.987 E35.14452
G1 X118.79 Y112.726 E35.2145
G1 X118.666 Y113.461 E35.28494
G1 X118.472 Y114.169 E35.35431
G1 X118.209 Y114.858 E35.42401
G1 X117.892 Y115.492 E35.49099
G1 X117.523 Y116.08 E35.55659
G1 X117.098 Y116.63 E35.62228
G1 X116.669 Y117.093 E35.68193
G1 X116.149 Y117.564 E35.74823
G1 X115.58 Y117.986 E35.81517
G1 X114.985 Y118.344 E35.88079
G1 X114.302 Y118.668 E35.95223
G1 X113.618 Y118.911 E36.02083
G1 X112.891 Y119.09 E36.09158
G1 X112.153 Y119.194 E36.16201
G1 X111.393 Y119.224 E36.23388
G1 X110.658 Y119.176 E36.30349
G1 X109.92 Y119.052 E36.37421
G1 X109.211 Y118.858 E36.44367
G1 X108.535 Y118.599 E36.51208
G1 X107.881 Y118.271 E36.58122
G1 X107.32 Y117.918 E36.64386
G1 X106.744 Y117.475 E36.71253
G1 X106.297 Y117.061 E36.7701
G1 X105.819 Y116.531 E36.83755
G1 X105.393 Y115.958 E36.90502
G1 X105.039 Y115.369 E36.96996
G1 X104.715 Y114.686 E37.0414
G1 X104.47 Y113.999 E37.11033
G1 X104.295 Y113.283 E37.17998
G1 X104.189 Y112.538 E37.25109
G1 X104.16 Y111.78 E37.32277
G1 X104.209 Y111.031 E37.39371
G1 X104.329 Y110.316 E37.46222
G1 X104.526 Y109.597 E37.53267
G1 X104.785 Y108.921 E37.60108
G1 X105.113 Y108.267 E37.67022
G1 X105.466 Y107.704 E37.73302
G1 X105.909 Y107.129 E37.80161
G1 X106.331 Y106.674 E37.86025
G1 X106.854 Y106.2 E37.92696
G1 X107.409 Y105.79 E37.99216
G1 X108.016 Y105.424 E38.05914
G1 X108.693 Y105.103 E38.12995
G1 X109.388 Y104.856 E38.19965
G1 X110.118 Y104.677 E38.27068
G0 F4320 X110.056 Y104.332
G1 F1800 X110.812 Y104.226 E38.34282
G1 X111.618 Y104.196 E38.41904
G1 X112.387 Y104.247 E38.49187
G1 X113.178 Y104.382 E38.5677
G1 X113.93 Y104.59 E38.64143
G1 X114.635 Y104.863 E38.71287
G1 X115.288 Y105.196 E38.78214
G1 X115.912 Y105.59 E38.85188
G1 X116.502 Y106.048 E38.92247
G1 X116.948 Y106.459 E38.97978
G1 X117.457 Y107.023 E39.05157
G1 X117.891 Y107.609 E39.12048
G1 X118.266 Y108.233 E39.18928
G1 X118.608 Y108.952 E39.26452
G1 X118.863 Y109.669 E39.33643
G1 X119.048 Y110.425 E39.40998
G1 X119.158 Y111.199 E39.48386
G1 X119.188 Y111.987 E39.55838
G1 X119.138 Y112.768 E39.63234
G1 X119.007 Y113.544 E39.70671
G1 X118.807 Y114.273 E39.77814
G1 X118.529 Y115 E39.8517
G1 X118.196 Y115.666 E39.92206
G1 X117.813 Y116.277 E39.99021
G1 X117.364 Y116.858 E40.0596
G1 X116.92 Y117.338 E40.12139
G1 X116.372 Y117.834 E40.19124
G1 X115.773 Y118.278 E40.2617
G1 X115.151 Y118.652 E40.33028
G1 X114.433 Y118.993 E40.4054
G1 X113.718 Y119.247 E40.4771
G1 X112.955 Y119.435 E40.55136
G1 X112.186 Y119.543 E40.62474
G1 X111.394 Y119.574 E40.69965
G1 X110.616 Y119.524 E40.77332
G1 X109.84 Y119.393 E40.84769
G1 X109.104 Y119.192 E40.91979
G1 X108.393 Y118.919 E40.99176
G1 X107.714 Y118.579 E41.06352
G1 X107.121 Y118.206 E41.12972
G1 X106.511 Y117.737 E41.20244
G1 X106.051 Y117.311 E41.26168
G1 X105.545 Y116.75 E41.33308
G1 X105.104 Y116.156 E41.40299
G1 X104.731 Y115.535 E41.47145
G1 X104.39 Y114.817 E41.54656
G1 X104.135 Y114.101 E41.61838
G1 X103.95 Y113.345 E41.69193
G1 X103.84 Y112.571 E41.76581
G1 X103.81 Y111.781 E41.84052
G1 X103.861 Y110.989 E41.91552
G1 X103.988 Y110.236 E41.98768
G1 X104.192 Y109.49 E42.06077
G1 X104.465 Y108.779 E42.13274
G1 X104.805 Y108.1 E42.2045
G1 X105.178 Y107.506 E42.27078
G1 X105.647 Y106.896 E42.3435
G1 X106.08 Y106.429 E42.40368
G1 X106.631 Y105.93 E42.47393
G1 X107.217 Y105.497 E42.54278
G1 X107.85 Y105.116 E42.6126
G1 X108.565 Y104.777 E42.68738
G1 X109.283 Y104.521 E42.75941
G1 X110.056 Y104.332 E42.83461
G0 F4320 X109.994 Y104.012
;TYPE:WALL-OUTER
G1 F1800 X110.784 Y103.902 E42.90999
G1 X111.617 Y103.871 E42.98876
G1 X112.425 Y103.924 E43.06528
G1 X113.251 Y104.065 E43.14447
G1 X114.035 Y104.282 E43.22134
G1 X114.767 Y104.566 E43.29554
G1 X115.452 Y104.914 E43.36815
G1 X116.096 Y105.321 E43.44014
G1 X116.71 Y105.798 E43.51361
G1 X117.18 Y106.231 E43.57401
G1 X117.706 Y106.814 E43.64821
G1 X118.162 Y107.43 E43.72063
G1 X118.555 Y108.083 E43.79266
G1 X118.907 Y108.824 E43.87018
G1 X119.176 Y109.579 E43.94592
G1 X119.368 Y110.364 E44.02229
G1 X119.482 Y111.17 E44.09922
G1 X119.513 Y111.987 E44.17648
